X:29
T:Colored Aristocracy
C:Old-Time
M:2/4
K:G
L:1/8
EF |: "G" GG/A/ G/E/D | G3 G/A/ | "Em" BB/c/ B/A/G | E3 A/B/ |
"C" c/B/c/d/ ed/c/ | "G" B/A/B/c/ dc/B/ |1 "A" AA/B/ AG | "D" AF EF :|2 "A" B/A/B/(d/ "D" d/)B/A |
"G" G3 e/f/ |: "G" gg g/e/d | "Em" e3 e | ef e/d/B | B3 A/B/ | "C" cc/d/ ed/c/ |
:|1 "G" B/A/B/c/ dc/B/ | "A" AB c^c | "D" d^d ef :|2 "G" B/A/B/c/ dB/A/ | "D" B/A/B/(d/ d/)B/A | "G" G4 |]

